X:1
T:Love me tender
C:Elvis Presley
Z:All Rights Reserved
L:1/4
M:4/4
K:G
V:1 treble nm=" " snm=" "
%%MIDI program 13
V:1
"G" D G F G |"A7" A E A2 |"D7sus4" G"D7" F E F |"G" G4 |"G" D G F G |"A7" A E A2 | %6
w: Love me ten- der|love me sweet,|ne- ver let me|go.|You have made my|life com- plete,|
w: Love me ten- der|love me long,|take me to your|heart.|For it's there that|I be- long,|
"D7sus4" G"D7" F E F |"G" G4 |"G" B B"B7"B/ B3/2 |"Em" B B"G7" B2 |"Cmaj7" B A"Cm" G A |"G" B4 | %12
w: and I love you|so.|Love me ten- der,|love me true,|all my dreams ful-|filled.|
w: and will ne- ver|part.|Love me ten- der,|love me dear,|tell me you are|mine.|
"G" B"Dm6" B"E" c"E7" B |"A7" A E A2 |1"D7sus4" G"D7" F E F |"G" G4 :|2"D7sus4" G"D7" F B>A || %17
w: For my dar- ling,|I love you,|and I al- ways|will.|'till the end of|
w: I'll be yours through|all the years,||||
"G" G4 |] %18
w: time.|
w: |

